src/assets/svg/cross-logo.svg

<svg width="140" height="140" viewBox="0 0 140 140" fill="none" xmlns="http://www.w3.org/2000/svg">
<g filter="url(#filter0_d)">
<path d="M110.064 45.5185H86.4815V21.9357C86.4815 19.7632 84.7183 18 82.5458 18H49.4542C47.2817 18 45.5185 19.7632 45.5185 21.9357V45.5185H21.9357C19.7632 45.5185 18 47.2817 18 49.4542V82.5458C18 84.7183 19.7632 86.4815 21.9357 86.4815H45.5185V110.064C45.5185 112.237 47.2817 114 49.4542 114H82.5458C84.7183 114 86.4815 112.237 86.4815 110.064V86.4815H110.064C112.237 86.4815 114 84.7183 114 82.5458V49.4542C114 47.2817 112.237 45.5185 110.064 45.5185Z" fill="#2BAA9B"/>
<path d="M72.8793 49.4856C70.7698 48.9504 68.4713 50.808 67.7471 53.6732C67.023 56.507 68.125 59.2462 70.2345 59.7815C72.344 60.3167 74.6425 58.4591 75.3667 55.5939C76.3112 51.91 73.3831 49.6116 72.8793 49.4856Z" fill="white"/>
<path d="M61.7966 59.3092C63.9007 59.3092 65.6064 56.9551 65.6064 54.0511C65.6064 51.1471 63.9007 48.793 61.7966 48.793C59.6925 48.793 57.9868 51.1471 57.9868 54.0511C57.9868 56.9551 59.6925 59.3092 61.7966 59.3092Z" fill="white"/>
<path d="M77.7911 59.0889C75.5871 59.1204 73.8239 61.2299 73.8869 64.4729C73.9499 67.716 75.776 69.2273 77.98 69.1958C80.184 69.1643 81.9472 67.6215 81.8843 64.3785C81.8213 60.1279 78.3264 59.0889 77.7911 59.0889Z" fill="white"/>
<path d="M57.9899 61.631C57.7848 58.6993 55.8607 56.4457 53.6923 56.5974C51.5238 56.7492 49.9323 59.2488 50.1374 62.1805C50.3425 65.1122 52.2666 67.3658 54.4351 67.2141C56.6035 67.0624 58.195 64.5628 57.9899 61.631Z" fill="white"/>
<path d="M75.7759 71.3052C73.8868 69.6365 72.281 68.2826 69.7622 64.7877C68.5027 63.056 67.0859 62.8356 65.5746 62.8356C64.0632 62.8356 62.489 63.3708 61.2925 65.1025C60.096 66.8343 58.7107 68.566 56.0344 70.8015C53.3581 73.037 52.2246 74.5798 52.2246 76.8467C52.2246 79.1137 53.5155 82.892 57.1994 82.892C60.8832 82.892 62.6779 82.0734 65.606 82.0734C68.5342 82.0734 70.4548 83.2069 74.1702 83.2069C77.854 83.2069 79.3968 79.7119 79.3968 77.445C79.3968 75.178 78.7356 73.9186 75.7759 71.3052Z" fill="white"/>
</g>
<defs>
<filter id="filter0_d" x="0" y="0" width="140" height="140" filterUnits="userSpaceOnUse" color-interpolation-filters="sRGB">
<feFlood flood-opacity="0" result="BackgroundImageFix"/>
<feColorMatrix in="SourceAlpha" type="matrix" values="0 0 0 0 0 0 0 0 0 0 0 0 0 0 0 0 0 0 127 0"/>
<feOffset dx="4" dy="4"/>
<feGaussianBlur stdDeviation="11"/>
<feColorMatrix type="matrix" values="0 0 0 0 0 0 0 0 0 0 0 0 0 0 0 0 0 0 0.25 0"/>
<feBlend mode="normal" in2="BackgroundImageFix" result="effect1_dropShadow"/>
<feBlend mode="normal" in="SourceGraphic" in2="effect1_dropShadow" result="shape"/>
</filter>
</defs>
</svg>

<svg xmlns="http://www.w3.org/2000/svg" width="140" height="140" fill="none"><g filter="url(#A)"><path d="M110.064 45.52H86.482V21.936A3.94 3.94 0 0 0 82.546 18H49.454a3.94 3.94 0 0 0-3.936 3.936V45.52H21.936A3.94 3.94 0 0 0 18 49.454v33.092a3.94 3.94 0 0 0 3.936 3.936H45.52v23.582A3.94 3.94 0 0 0 49.454 114h33.092a3.94 3.94 0 0 0 3.936-3.936V86.482h23.582A3.94 3.94 0 0 0 114 82.546V49.454a3.94 3.94 0 0 0-3.936-3.936z" fill="#2baa9b"/><path d="M72.88 49.486c-2.11-.535-4.408 1.322-5.132 4.188-.724 2.834.378 5.573 2.487 6.108s4.408-1.322 5.132-4.188c.945-3.684-1.984-5.982-2.487-6.108z" fill="#fff"/><path d="M61.797 59.31c2.104 0 3.8-2.354 3.8-5.258s-1.706-5.258-3.8-5.258-3.8 2.354-3.8 5.258 1.706 5.258 3.8 5.258z" fill="#fff"/><path d="M77.79 59.09c-2.204.03-3.967 2.14-3.904 5.384s1.89 4.754 4.093 4.723 3.967-1.574 3.904-4.817c-.063-4.25-3.558-5.3-4.093-5.3z" fill="#fff"/><path d="M58 61.63c-.205-2.932-2.13-5.185-4.298-5.034s-3.76 2.65-3.555 5.583 2.13 5.185 4.298 5.034 3.76-2.65 3.555-5.583z" fill="#fff"/><path d="M75.776 71.305c-1.89-1.67-3.495-3.023-6.014-6.517-1.26-1.732-2.676-1.952-4.188-1.952s-3.086.535-4.282 2.267-2.582 3.463-5.258 5.7-3.8 3.778-3.8 6.045 1.29 6.045 4.975 6.045 5.48-.82 8.407-.82 4.85 1.133 8.564 1.133c3.684 0 5.227-3.495 5.227-5.762s-.66-3.526-3.62-6.14z" fill="#fff"/></g><defs><filter id="A" x="0" y="0" width="140" height="140" filterUnits="userSpaceOnUse" color-interpolation-filters="sRGB"><feFlood flood-opacity="0" result="A"/><feColorMatrix in="SourceAlpha" values="0 0 0 0 0 0 0 0 0 0 0 0 0 0 0 0 0 0 127 0"/><feOffset dx="4" dy="4"/><feGaussianBlur stdDeviation="11"/><feColorMatrix values="0 0 0 0 0 0 0 0 0 0 0 0 0 0 0 0 0 0 0.25 0"/><feBlend in2="A"/><feBlend in="SourceGraphic"/></filter></defs></svg>
